icons/1_Primary/Incogniton.svg

<svg xmlns="http://www.w3.org/2000/svg" width="1024" height="1024" fill="none">
   <g clip-path="url(#a)">
      <path fill="#8C72BD" d="M512 1024c282.77 0 512-229.23 512-512S794.77 0 512 0 0 229.23 0 512s229.23 512 512 512Z"/>
      <path fill="#fff" d="M618.34 676.23c4.73-12.24 10.41-21.44 16.97-28.83 1.54 3.6 3.19 7.29 4.97 11.07 6.53 13.78 17.21 25.66 26.93 36.17-16.29-5.94-31.64-10.27-48.87-18.42v.01ZM509.09 509.44c4.19 15.35 8.43 30.87 13.58 46.22 23.9-55.33 65.02-91.99 124.49-121.09 5.86-2.81 14.65-5.75 25.13-7.56C692.4 356.06 688.87 272.3 597 266.56c-79.43-2.74-118.05 68.8-140.6 125.19 29.28 32.65 41.1 74.85 52.7 117.69h-.01Zm263.181-8.49c-.54-26.38-21.461-49.2-45.191-59.19-21.82-8.74-46.8-8.07-68.91-.71-55.85 24.76-106.68 63.74-130.19 129.36 13.68 38.39 43.58 82.54 81.27 101.2 17.69-45.52 48.97-52.78 87.18-74.4 18.09-10.19 36.75-25.29 51.09-41.27 13.76-15.06 25.36-34.03 24.761-54.99h-.01ZM605.81 681.28c-37.46-18.58-66.89-57.68-82.44-95.2-12.68-29.24-20.17-60.29-28.74-90.87-10.22-36.69-23.19-74.28-50.59-101.87-12.23-12.58-27.21-22.65-43.31-30.67-120.49-61.19-166.37 55.72-143.23 157.38 8.96 38.98 29.59 74.09 53.53 105.93 55.59 72.06 137.15 125.06 226.05 144.63 20.48 4.3 41.32 7.5 62.29 6.83 29.63-1.03 76.84-8.4 88.42-39.97 3.59-9.54 2.56-18.43-6.07-24.51-8.78-6.18-18.84-8.99-29.13-12.67-15.89-5.34-31.89-11.02-46.77-19"/>
   </g>
   <defs>
      <clipPath id="a">
         <path fill="#fff" d="M0 0h1024v1024H0z"/>
      </clipPath>
   </defs>
</svg>

<svg width="1024" height="1024" viewBox="0 0 1024 1024" fill="none" xmlns="http://www.w3.org/2000/svg">
<g clip-path="url(#clip0_2_2502)">
<path d="M512 1024C794.77 1024 1024 794.77 1024 512C1024 229.23 794.77 0 512 0C229.23 0 0 229.23 0 512C0 794.77 229.23 1024 512 1024Z" fill="#8C72BD"/>
<path d="M618.34 676.23C623.07 663.99 628.75 654.79 635.31 647.4C636.85 651 638.5 654.69 640.28 658.47C646.81 672.25 657.49 684.13 667.21 694.64C650.92 688.7 635.57 684.37 618.34 676.22V676.23ZM509.09 509.44C513.28 524.79 517.52 540.31 522.67 555.66C546.57 500.33 587.69 463.67 647.16 434.57C653.02 431.76 661.81 428.82 672.29 427.01C692.4 356.06 688.87 272.3 597 266.56C517.57 263.82 478.95 335.36 456.4 391.75C485.68 424.4 497.5 466.6 509.1 509.44H509.09ZM772.271 500.95C771.731 474.57 750.81 451.75 727.08 441.76C705.26 433.02 680.28 433.69 658.17 441.05C602.32 465.81 551.49 504.79 527.98 570.41C541.66 608.8 571.56 652.95 609.25 671.61C626.94 626.09 658.22 618.83 696.43 597.21C714.52 587.02 733.18 571.92 747.52 555.94C761.28 540.88 772.88 521.91 772.281 500.95H772.271ZM605.81 681.28C568.35 662.7 538.92 623.6 523.37 586.08C510.69 556.84 503.2 525.79 494.63 495.21C484.41 458.52 471.44 420.93 444.04 393.34C431.81 380.76 416.83 370.69 400.73 362.67C280.24 301.48 234.36 418.39 257.5 520.05C266.46 559.03 287.09 594.14 311.03 625.98C366.62 698.04 448.18 751.04 537.08 770.61C557.56 774.91 578.4 778.11 599.37 777.44C629 776.41 676.21 769.04 687.79 737.47C691.38 727.93 690.35 719.04 681.72 712.96C672.94 706.78 662.88 703.97 652.59 700.29C636.7 694.95 620.7 689.27 605.82 681.29" fill="white"/>
</g>
<defs>
<clipPath id="clip0_2_2502">
<rect width="1024" height="1024" fill="white"/>
</clipPath>
</defs>
</svg>
